flaticon/constructions/wrench.svg

<svg xmlns="http://www.w3.org/2000/svg" width="32" height="32" viewBox="0 0 24 24">
    <path d="M 13.761719 0.0273438 C 13.640625 -0.015625 13.480469 -0.015625 13.359375 0.0664062 C 13.28125 0.144531 13.199219 0.265625 13.199219 0.386719 L 13.199219 3.507812 L 12.542969 4.789062 L 11.601562 4.789062 L 11.601562 0.386719 C 11.601562 0.265625 11.558594 0.144531 11.398438 0.0664062 C 11.320312 -0.015625 11.160156 -0.015625 11.039062 0.0273438 C 8.699219 0.992188 7.742188 3.058594 7.613281 4.789062 L 7.195312 4.789062 C 6.957031 4.789062 6.796875 4.949219 6.796875 5.1875 C 6.796875 6.351562 7.238281 7.429688 7.996094 8.351562 C 9 9.550781 9.558594 10.953125 9.597656 12.351562 C 9.597656 12.511719 9.597656 12.671875 9.597656 12.792969 L 9.597656 21.519531 C 9.597656 23 10.558594 24 12 24 C 13.441406 24 14.402344 23 14.402344 21.597656 L 14.402344 12.792969 C 14.402344 12.632812 14.402344 12.511719 14.402344 12.351562 C 14.441406 10.953125 14.960938 9.550781 16.003906 8.351562 C 16.800781 7.429688 17.203125 6.351562 17.203125 5.1875 C 17.203125 2.789062 15.921875 0.867188 13.761719 0.0273438 Z M 13.960938 3.75 C 14 3.707031 14 3.667969 14 3.589844 L 14 1.027344 C 15.882812 2.027344 16.324219 3.75 16.402344 4.789062 L 13.441406 4.789062 Z M 10.839844 1.027344 L 10.839844 4.789062 L 8.4375 4.789062 C 8.519531 3.46875 9.199219 1.90625 10.839844 1.027344 Z M 15.402344 7.832031 C 14.242188 9.191406 13.640625 10.753906 13.601562 12.351562 C 13.601562 12.511719 13.601562 12.632812 13.601562 12.792969 L 13.601562 21.597656 C 13.601562 22.558594 12.960938 23.199219 12 23.199219 C 11.027344 23.199219 10.429688 22.59375 10.402344 21.597656 L 11.601562 21.597656 C 11.839844 21.597656 12 21.4375 12 21.199219 C 12 20.957031 11.839844 20.796875 11.601562 20.796875 L 10.398438 20.796875 L 10.398438 19.996094 L 11.601562 19.996094 C 11.839844 19.996094 12 19.835938 12 19.597656 C 12 19.355469 11.839844 19.199219 11.601562 19.199219 L 10.398438 19.199219 L 10.398438 12.792969 C 10.398438 12.671875 10.398438 12.511719 10.398438 12.351562 C 10.359375 10.753906 9.757812 9.191406 8.597656 7.832031 C 8.039062 7.148438 7.71875 6.390625 7.636719 5.589844 L 16.363281 5.589844 C 16.28125 6.390625 15.960938 7.148438 15.402344 7.832031 Z M 15.402344 7.832031"/>
    <path d="M12 6.390625C11.761719 6.390625 11.601562 6.550781 11.601562 6.789062L11.601562 7.992188C11.601562 8.230469 11.761719 8.390625 12 8.390625 12.238281 8.390625 12.398438 8.191406 12.398438 7.992188L12.398438 6.789062C12.398438 6.550781 12.238281 6.390625 12 6.390625zM10.398438 6.390625C10.160156 6.390625 10 6.550781 10 6.789062L10 7.992188C10 8.230469 10.160156 8.390625 10.398438 8.390625 10.640625 8.390625 10.800781 8.191406 10.800781 7.992188L10.800781 6.789062C10.800781 6.550781 10.640625 6.390625 10.398438 6.390625zM13.601562 8.390625C13.839844 8.390625 14 8.191406 14 7.992188L14 6.789062C14 6.550781 13.839844 6.390625 13.601562 6.390625 13.359375 6.390625 13.199219 6.550781 13.199219 6.789062L13.199219 7.992188C13.199219 8.230469 13.359375 8.390625 13.601562 8.390625zM13.601562 8.390625"/>
</svg>

<svg xmlns="http://www.w3.org/2000/svg" width="32" height="32" viewBox="0 0 24 24">
    <path d="M13.762.027a.46.46 0 0 0-.403.04c-.078.078-.16.199-.16.32v3.12l-.656 1.282h-.941V.387a.33.33 0 0 0-.204-.32c-.078-.083-.238-.083-.359-.04C8.7.992 7.742 3.06 7.613 4.79h-.418c-.238 0-.398.16-.398.399 0 1.164.441 2.242 1.2 3.164 1.003 1.199 1.562 2.601 1.6 4V21.52C9.598 23 10.56 24 12 24s2.402-1 2.402-2.402v-8.805-.441c.04-1.399.559-2.801 1.602-4 .797-.922 1.2-2 1.2-3.165 0-2.398-1.282-4.32-3.442-5.16zm.199 3.723C14 3.707 14 3.668 14 3.59V1.027c1.883 1 2.324 2.723 2.402 3.762h-2.96zM10.84 1.027V4.79H8.438c.082-1.32.761-2.883 2.402-3.762zm4.562 6.805c-1.16 1.36-1.761 2.922-1.8 4.52v9.246c0 .96-.641 1.601-1.602 1.601-.973 0-1.57-.605-1.598-1.601h1.2c.238 0 .398-.16.398-.399 0-.242-.16-.402-.398-.402h-1.204v-.8h1.204c.238 0 .398-.161.398-.4 0-.242-.16-.398-.398-.398h-1.204v-6.406-.441c-.039-1.598-.64-3.16-1.8-4.52-.559-.684-.88-1.441-.961-2.242h8.726c-.082.8-.402 1.558-.96 2.242zm0 0"/>
    <path d="M12 6.39c-.238 0-.398.16-.398.4v1.202c0 .238.16.399.398.399a.4.4 0 0 0 .398-.399V6.79c0-.238-.16-.398-.398-.398zm0 0M10.398 6.39c-.238 0-.398.16-.398.4v1.202c0 .238.16.399.398.399a.4.4 0 0 0 .403-.399V6.79c0-.238-.16-.398-.403-.398zm0 0M13.602 8.39A.4.4 0 0 0 14 7.993V6.79c0-.238-.16-.398-.398-.398-.243 0-.403.16-.403.398v1.203c0 .238.16.399.403.399zm0 0"/>
</svg>
